src/static/logos/modx.svg

<?xml version="1.0" encoding="UTF-8" standalone="no"?>
<svg width="256px" height="329px" viewBox="0 0 256 329" version="1.1" xmlns="http://www.w3.org/2000/svg" xmlns:xlink="http://www.w3.org/1999/xlink" preserveAspectRatio="xMidYMid">
    <defs>
        <linearGradient x1="85.1062385%" y1="55.7807153%" x2="19.9423853%" y2="-16.8290998%" id="linearGradient-1">
            <stop stop-color="#80C3E6" offset="0%"></stop>
            <stop stop-color="#3380C2" offset="100%"></stop>
        </linearGradient>
        <linearGradient x1="123.372644%" y1="66.0965824%" x2="40.5484837%" y2="33.8332996%" id="linearGradient-2">
            <stop stop-color="#F38649" offset="0%"></stop>
            <stop stop-color="#F28147" offset="18.49%"></stop>
            <stop stop-color="#EF7242" offset="40.91%"></stop>
            <stop stop-color="#EA5A3A" offset="65.37%"></stop>
            <stop stop-color="#E4382E" offset="91.1%"></stop>
            <stop stop-color="#E12A29" offset="100%"></stop>
        </linearGradient>
        <linearGradient x1="-4.29496133%" y1="79.6928428%" x2="71.981227%" y2="21.2866003%" id="linearGradient-3">
            <stop stop-color="#42AB4A" offset="0%"></stop>
            <stop stop-color="#ADD155" offset="100%"></stop>
        </linearGradient>
        <linearGradient x1="22.7900232%" y1="124.295675%" x2="77.2115587%" y2="-24.2950001%" id="linearGradient-4">
            <stop stop-color="#42AB4A" offset="0%"></stop>
            <stop stop-color="#ADD155" offset="100%"></stop>
        </linearGradient>
    </defs>
	<g>
		<g transform="translate(14.769231, 0.000000)">
			<path d="M188.472615,101.984 L237.474462,23.5864615 L119.606154,23.5864615 L103.320615,49.7132308 L188.472615,101.984 Z" fill="url(#linearGradient-1)"></path>
			<path d="M103.330462,49.7132308 L111.670154,36.3027692 L188.482462,101.984 L103.330462,49.7132308 Z" opacity="0.15" fill="#000000"></path>
			<path d="M214.392615,244.120615 L214.392615,126.262154 L188.964923,110.368 L135.495385,194.825846 L214.392615,244.120615 Z" fill="url(#linearGradient-2)"></path>
			<path d="M135.495385,194.820923 L148.704,203.067077 L188.964923,110.368 L135.495385,194.820923 Z" opacity="0.15" fill="#000000"></path>
			<path d="M24.5538462,0 L24.5538462,117.860923 L51.8252308,133.752615 L188.455385,101.969231 L24.5538462,0 Z" fill="url(#linearGradient-3)"></path>
			<path d="M51.2541538,142.739692 L2.25476923,219.810462 L120.115692,219.810462 L188.977231,110.368 L51.2541538,142.739692 Z" fill="url(#linearGradient-4)"></path>
		</g>
		<path d="M0.00492307692,319.657846 L6.85784615,319.657846 L10.2843077,277.806769 L3.26646154,277.806769 L3.26646154,269.730462 L22.112,269.730462 L35.0006154,302.446769 C35.9778462,305.302154 36.3864615,307.259077 36.3864615,307.259077 L36.5489231,307.259077 C36.5489231,307.259077 36.9575385,305.302154 38.0184615,302.446769 L50.8258462,269.730462 L69.6689231,269.730462 L69.6689231,277.806769 L62.7372308,277.806769 L66.08,319.657846 L72.9329231,319.657846 L72.9329231,327.652923 L49.1913846,327.652923 L49.1913846,319.657846 L55.6356923,319.657846 L53.5163077,290.456615 C53.3538462,288.413538 53.7624615,285.070769 53.7624615,285.070769 L53.5163077,285.070769 C53.5163077,285.070769 52.8615385,288.248615 52.1304615,290.210462 L41.0338462,316.883692 L31.8966154,316.883692 L20.8024615,290.210462 C20.0664615,288.248615 19.4978462,285.070769 19.4978462,285.070769 L19.1704615,285.070769 C19.1704615,285.070769 19.5790769,288.408615 19.4166154,290.456615 L17.2972308,319.657846 L23.8227692,319.657846 L23.8227692,327.652923 L0,327.652923 L0,319.657846 L0.00492307692,319.657846 Z M106.968615,268.750769 C124.098462,268.750769 136.987077,281.723077 136.987077,298.286769 C136.987077,315.337846 124.098462,328.632615 106.968615,328.632615 C89.8338462,328.632615 76.9452308,315.337846 76.9452308,298.286769 C76.9452308,281.720615 89.8338462,268.750769 106.968615,268.750769 Z M106.968615,319.249231 C117.410462,319.249231 125.979077,310.195692 125.979077,298.284308 C125.979077,286.860308 117.412923,278.129231 106.968615,278.129231 C96.5243077,278.129231 87.9581538,286.862769 87.9581538,298.284308 C87.9581538,310.198154 96.5267692,319.249231 106.968615,319.249231 Z M142.301538,319.657846 L149.230769,319.657846 L149.230769,277.806769 L142.301538,277.806769 L142.301538,269.730462 L167.345231,269.730462 C172.002462,269.730462 175.670154,269.976615 179.421538,271.113846 C190.678154,274.459077 198.185846,284.413538 198.185846,298.688 C198.185846,312.393846 191.249231,322.264615 180.238769,325.937231 C176.317538,327.320615 172.243692,327.645538 167.426462,327.645538 L142.301538,327.645538 L142.301538,319.657846 Z M166.939077,319.089231 C170.606769,319.089231 173.545846,318.761846 176.401231,317.614769 C183.010462,314.921846 187.170462,308.152615 187.170462,298.690462 C187.170462,288.898462 182.766769,282.212923 175.992615,279.601231 C173.058462,278.459077 170.363077,278.299077 166.939077,278.299077 L159.918769,278.299077 L159.918769,319.089231 L166.939077,319.089231 L166.939077,319.089231 Z M204.327385,319.657846 L209.469538,319.657846 L224.071385,298.284308 L209.873231,277.806769 L204.731077,277.806769 L204.731077,269.730462 L226.599385,269.730462 L226.599385,277.806769 L220.888615,277.806769 L228.883692,289.801846 C229.949538,291.101538 230.518154,292.248615 230.518154,292.248615 L230.678154,292.248615 C230.678154,292.327385 231.244308,291.182769 232.228923,289.801846 L239.975385,277.806769 L234.427077,277.806769 L234.427077,269.730462 L255.475692,269.730462 L255.475692,277.806769 L250.417231,277.806769 L235.734154,299.096615 L250.171077,319.657846 L255.310769,319.657846 L255.310769,327.652923 L233.363692,327.652923 L233.363692,319.657846 L239.074462,319.657846 L230.998154,307.502769 C229.939692,306.119385 229.368615,304.977231 229.368615,304.977231 L229.206154,304.977231 C229.043692,304.977231 228.551385,306.121846 227.657846,307.502769 L219.908923,319.657846 L225.533538,319.657846 L225.533538,327.652923 L204.329846,327.652923 L204.327385,319.657846 Z" fill="#000000"></path>
	</g>
</svg>

<svg width="256" height="329" xmlns="http://www.w3.org/2000/svg" preserveAspectRatio="xMidYMid"><defs><linearGradient x1="85.106%" y1="55.781%" x2="19.942%" y2="-16.829%" id="a"><stop stop-color="#80C3E6" offset="0%"/><stop stop-color="#3380C2" offset="100%"/></linearGradient><linearGradient x1="123.373%" y1="66.097%" x2="40.548%" y2="33.833%" id="b"><stop stop-color="#F38649" offset="0%"/><stop stop-color="#F28147" offset="18.49%"/><stop stop-color="#EF7242" offset="40.91%"/><stop stop-color="#EA5A3A" offset="65.37%"/><stop stop-color="#E4382E" offset="91.1%"/><stop stop-color="#E12A29" offset="100%"/></linearGradient><linearGradient x1="-4.295%" y1="79.693%" x2="71.981%" y2="21.287%" id="c"><stop stop-color="#42AB4A" offset="0%"/><stop stop-color="#ADD155" offset="100%"/></linearGradient><linearGradient x1="22.79%" y1="124.296%" x2="77.212%" y2="-24.295%" id="d"><stop stop-color="#42AB4A" offset="0%"/><stop stop-color="#ADD155" offset="100%"/></linearGradient></defs><path d="M188.473 101.984l49.001-78.398H119.606l-16.285 26.127 85.152 52.271z" fill="url(#a)" transform="translate(14.77)"/><path d="M118.1 49.713l8.34-13.41 76.812 65.681-85.152-52.27z" opacity=".15"/><path d="M214.393 244.12V126.263l-25.428-15.894-53.47 84.458 78.898 49.295z" fill="url(#b)" transform="translate(14.77)"/><path d="M150.265 194.82l13.208 8.247 40.261-92.699-53.47 84.453z" opacity=".15"/><path d="M24.554 0v117.86l27.271 15.893 136.63-31.784L24.554 0z" fill="url(#c)" transform="translate(14.77)"/><path d="M51.254 142.74l-49 77.07h117.862l68.861-109.442L51.254 142.74z" fill="url(#d)" transform="translate(14.77)"/><path d="M.005 319.658h6.853l3.426-41.851H3.266v-8.077h18.846l12.889 32.717c.977 2.855 1.385 4.812 1.385 4.812h.163s.409-1.957 1.47-4.812l12.807-32.717h18.843v8.077h-6.932l3.343 41.85h6.853v7.996H49.19v-7.995h6.445l-2.12-29.201c-.162-2.043.246-5.386.246-5.386h-.246s-.654 3.178-1.386 5.14l-11.096 26.673h-9.137L20.802 290.21c-.736-1.961-1.304-5.14-1.304-5.14h-.328s.41 3.339.247 5.387l-2.12 29.2h6.526v7.996H0v-7.995h.005zm106.964-50.907c17.13 0 30.018 12.972 30.018 29.536 0 17.05-12.889 30.346-30.018 30.346-17.135 0-30.024-13.295-30.024-30.346 0-16.566 12.889-29.536 30.024-29.536zm0 50.498c10.441 0 19.01-9.053 19.01-20.965 0-11.424-8.566-20.155-19.01-20.155-10.445 0-19.01 8.734-19.01 20.155 0 11.914 8.568 20.965 19.01 20.965zm35.333.409h6.929v-41.851h-6.93v-8.077h25.044c4.657 0 8.325.247 12.077 1.384 11.256 3.345 18.764 13.3 18.764 27.574 0 13.706-6.937 23.577-17.947 27.25-3.921 1.383-7.995 1.708-12.813 1.708h-25.124v-7.988zm24.637-.569c3.668 0 6.607-.327 9.462-1.474 6.61-2.693 10.77-9.462 10.77-18.925 0-9.792-4.404-16.477-11.178-19.089-2.935-1.142-5.63-1.302-9.054-1.302h-7.02v40.79h7.02zm37.388.569h5.143l14.601-21.374-14.198-20.477h-5.142v-8.077H226.6v8.077h-5.71l7.995 11.995c1.066 1.3 1.634 2.447 1.634 2.447h.16c0 .078.566-1.066 1.55-2.447l7.747-11.995h-5.548v-8.077h21.049v8.077h-5.059l-14.683 21.29 14.437 20.56h5.14v7.996h-21.947v-7.995h5.71l-8.076-12.155c-1.058-1.384-1.63-2.526-1.63-2.526h-.162c-.162 0-.655 1.145-1.548 2.526l-7.75 12.155h5.626v7.995H204.33l-.003-7.995z"/></svg>
